PortableApps/LibreOfficePortable/App/libreoffice/help/media/icon-themes/cmd/sc_showerrors.svg

<svg viewBox="0 0 16 16" xmlns="http://www.w3.org/2000/svg"><path d="m8 0a8 8 0 0 0 -8 8 8 8 0 0 0 6.1171875 7.765625l-2.3964844-1.947266c-.4269077-.320945-.7090929-.838566-.7324219-1.335937-.023329-.497372.1627044-.93405.4453126-1.263672.282608-.329622.6797376-.577065 1.1640624-.640625.4843251-.063561 1.0396826.104408 1.4414063.457031l1.9902344 1.617188 5.7089841-6.9609378c.331992-.4199134.830217-.6685482 1.359375-.6914062.11257-.0048025.218085.0196315.326172.0351562a8 8 0 0 0 -7.423828-5.0351562zm7.962891 8.7089844-5.712891 6.9628906a8 8 0 0 0 5.712891-6.9628906z" fill="#e68497"/><path d="m7 2v8h2v-8zm0 9v.816406l1.0292969.835938.9707031-1.183594v-.46875z" fill="#fff"/><path d="m15.140625 6a.82501843.80327894 0 0 0 -.617187.3125l-6.351563 7.744141-2.7929688-2.269532a.82501843.80327894 0 1 0 -1.0566406 1.232422l3.4394532 2.794922a.82501843.80327894 0 0 0 1.171875-.115234l6.8789062-8.3847659a.82501843.80327894 0 0 0 -.671875-1.3144531z" fill="#76a797"/></svg>

<svg viewBox="0 0 16 16" xmlns="http://www.w3.org/2000/svg">
 <path
   style="fill:#e68497"
   d="M 8 0 A 8 8 0 0 0 0 8 A 8 8 0 0 0 6.1171875 15.765625 L 3.7207031 13.818359 C 3.2937954 13.497414 3.0116102 12.979793 2.9882812 12.482422 C 2.9649522 11.98505 3.1509856 11.548372 3.4335938 11.21875 C 3.7162018 10.889128 4.1133314 10.641685 4.5976562 10.578125 C 5.0819813 10.514564 5.6373388 10.682533 6.0390625 11.035156 L 8.0292969 12.652344 L 13.738281 5.6914062 C 14.070273 5.2714928 14.568498 5.022858 15.097656 5 C 15.210226 4.9951975 15.315741 5.0196315 15.423828 5.0351562 A 8 8 0 0 0 8 0 z M 15.962891 8.7089844 L 10.25 15.671875 A 8 8 0 0 0 15.962891 8.7089844 z " />
<path
   style="fill:#ffffff"
   d="M 7 2 L 7 10 L 9 10 L 9 2 L 7 2 z M 7 11 L 7 11.816406 L 8.0292969 12.652344 L 9 11.46875 L 9 11 L 7 11 z " />
<path
   style="fill:#76a797"
   d="M 15.140625 6 A 0.82501843 0.80327894 0 0 0 14.523438 6.3125 L 8.171875 14.056641 L 5.3789062 11.787109 A 0.82501843 0.80327894 0 1 0 4.3222656 13.019531 L 7.7617188 15.814453 A 0.82501843 0.80327894 0 0 0 8.9335938 15.699219 L 15.8125 7.3144531 A 0.82501843 0.80327894 0 0 0 15.140625 6 z " />
</svg>
